X:523
T:I Love You My Darling
M:3/4
L:1/8
B:O'Neill's 523
N:"Slow plaintive" "collected by J. O'Neill"
Z:Transcribed by Dave Wooldridge
K:F
(F>G) \
| (A3 c AG) | G>F F2 (A>c) | d3 f (d/2c/2A/2c/2) | d4 (fd) |
 c2 dc AG | G>F F2 FA | (G2F2) .F2 | F4 ||
(cd/2e/2) \
| (f3 g) (a>g) | f2 c2 f2 | g3 a (b/2a/2g/2f/2) | {a}g4 cd |
(f3 g) (a>g) | (fdcBA>G) | F4 GE | F4 ||


